ft/base/chain/light.svg

<svg width="1280" height="1280" viewBox="0 0 1280 1280" fill="none" xmlns="http://www.w3.org/2000/svg">
<g clip-path="url(#clip0_177_177)">
<path d="M0.000234375 101.12C0.000234375 66.48 0.000234604 49.17 6.53023 35.84C12.7802 23.08 23.0902 12.77 35.8502 6.52C49.1702 0 66.4802 0 101.12 0H1178.88C1213.51 0 1230.84 0 1244.16 6.53C1256.91 12.78 1267.22 23.09 1273.48 35.85C1280 49.17 1280 66.49 1280 101.13V1178.89C1280 1213.52 1280 1230.85 1273.48 1244.17C1267.22 1256.92 1256.91 1267.23 1244.16 1273.49C1230.84 1280.01 1213.51 1280.01 1178.88 1280.01H101.12C66.4802 1280.01 49.1702 1280.01 35.8402 1273.49C23.0802 1267.23 12.7702 1256.92 6.52023 1244.17C-0.00976562 1230.85 -0.00976562 1213.52 -0.00976562 1178.89V101.12H0.000234375Z" fill="#0000FF"/>
</g>
<defs>
<clipPath id="clip0_177_177">
<rect width="1280" height="1280" fill="white"/>
</clipPath>
</defs>
</svg>

<?xml version="1.0" encoding="UTF-8"?>
<svg id="Layer_1" data-name="Layer 1" xmlns="http://www.w3.org/2000/svg" viewBox="0 0 1280 1280">
  <defs>
    <style>
      .cls-1 {
        fill: blue;
      }
    </style>
  </defs>
  <path class="cls-1" d="M0,101.12c0-34.64,0-51.95,6.53-65.28,6.25-12.76,16.56-23.07,29.32-29.32C49.17,0,66.48,0,101.12,0h1077.76c34.63,0,51.96,0,65.28,6.53,12.75,6.25,23.06,16.56,29.32,29.32,6.52,13.32,6.52,30.64,6.52,65.28v1077.76c0,34.63,0,51.96-6.52,65.28-6.26,12.75-16.57,23.06-29.32,29.32-13.32,6.52-30.65,6.52-65.28,6.52H101.12c-34.64,0-51.95,0-65.28-6.52-12.76-6.26-23.07-16.57-29.32-29.32-6.53-13.32-6.53-30.65-6.53-65.28V101.12Z"/>
</svg>
